X:1
T:Penarth, 73.73.77
T:Penarth, 73.73.77
T:Samuel F. Deyes, 1917
T:Public Domain Courtesy of the Cyber Hymnal™
C:Samuel F. Deyes, 1917
Z:Public Domain
Z:Courtesy of the Cyber Hymnal™
%%score ( 1 2 ) ( 3 4 )
L:1/8
Q:1/4=92
M:3/4
K:Ab
V:1 treble 
V:2 treble 
V:3 bass 
V:4 bass 
V:1
 [Cc][CE] | [CA]3 [CE] [DB]E | (c2 A2) [Fc][FA] | e4 [GB][GB] | [Ac]4 [CA][CE] | [CA]3 [CE] [DB]E | %6
 (c2 A2) [Fc][FA] | e4 [GB][Gc] | [EA]4 [Cc][Cc] | [=Ec]3 [EG] [F=d][FG] | c6 | %11
[M:2/4] .[ce].[Ac] .[Ac][FA] |"^rall." [FA]2 [GB]2 | [EA]4 |] %14
V:2
 x2 | x5 E | C4 x2 | (A2 EF) x2 | x6 | x5 E | C4 x2 | (A2 EF) x2 | x6 | x6 | (=E2 F4) |[M:2/4] x4 | %12
 x4 | x4 |] %14
V:3
 [A,,A,]2 | A,E,A,E,G,E, | (A,E,A,E,) [F,A,][F,C] | [E,C]4 [E,D][E,D] | [A,,C]4 [A,,A,]2 | %5
 A,E,A,E,A,E, | (A,E,A,E,) [F,A,][F,C] | [E,C]4 [E,D][E,D] | [A,C]4 CC | C3 C [G,=B,][G,B,] | %10
 (CB, [F,A,]4) |[M:2/4] [E,A,][E,C] [E,E][E,C] | [E,D]2 [E,D]2 | [A,,C]4 |] %14
V:4
 x2 | A,,6- | A,,4 x2 | x6 | x6 | A,,6- | A,,4 x2 | x6 | x4 CC | C3 C x2 | C,2 x4 |[M:2/4] x4 | %12
 x4 | x4 |] %14

